Origami/48x48/apps/ulauncher.svg

<svg width="48" height="48" version="1.1" viewBox="0 0 48 48" xmlns="http://www.w3.org/2000/svg">
 <g transform="matrix(.90854028 0 0 .92163775 2.6538461 2.2793023)">
  <path d="m43.307002 2.952025-11.004518 4.6346674v1.9093897c-0.0014-5.621e-4 -0.0029-0.00156-0.0043-0.00212v1.010854c6.9e-5 0.01429 0.0022 0.02807 0.0022 0.04238v18.445425c0 2.465191-1.039883 4.675941-2.704373 6.251609-0.02451 0.02325-0.05046 0.04484-0.07524 0.06781-0.21164 0.19617-0.431535 0.382417-0.66212 0.557347-8.02e-4 6.08e-4 -0.0013 0.0015-0.0021 0.0021-1.483594 1.124711-3.336741 1.801311-5.361451 1.801311-4.878155 0-8.805334-3.871369-8.805334-8.6802v-2.676536-10.684953l-11.006667 4.823274v6.611871c0 2.840001 0.3855599 5.441379 1.1565599 7.794379 0.7650002 2.353001 1.9519691 4.377835 3.5599686 6.077836 1.3620002 1.443 3.0423912 2.614093 5.0303912 3.522092l0.133283-0.0042h0.0022c0.287669 0.16738 0.596016 0.325935 0.948035 0.461983 2.471 0.955 5.409333 1.434692 8.805334 1.434692l-0.0064-0.01272c3.453 0 6.432366-0.458427 8.949366-1.394427 2.518-0.928999 4.586344-2.244931 6.221347-3.945931 1.628-1.695 2.842059-3.734504 3.63306-6.107504 0.791-2.372999 1.186656-4.985404 1.186656-7.830405v-0.481055c3.68e-4 -0.01158 0.0043-0.02225 0.0043-0.03391v-23.595056z" style="opacity:.2"/>
 </g>
 <g transform="matrix(.90854028 0 0 .92163775 2.6538461 2.2793023)">
  <path transform="matrix(1.1006667,0,0,1.085025,-2.9209999,-2.4731)" d="m 42,4 -9.998047,4.2714844 0,16.7851566 C 32.01301,28.672327 42,28.367623 42,25.746094 L 42,4 Z" style="fill:#2165b0"/>
 </g>
 <g transform="matrix(.90854028 0 0 .92163775 2.6538461 2.2793023)">
  <path transform="matrix(1.1006667,0,0,1.085025,-2.9209999,-2.4731)" d="m16 15.685547-10 4.445312v6.09375c0 2.617452 0.3502967 5.01498 1.0507812 7.183594 0.6950334 2.168614 1.7734423 4.034778 3.2343748 5.601563 1.237432 1.329923 2.764135 2.409246 4.570313 3.246093l2.555416 0.780524c8.215021-0.850671 11.139375-7.061565 12.071537-8.860602h0.0039l0.240234-0.583984c-1.450895 1.485865-3.476127 2.408203-5.726556 2.408203-4.432 0-8-3.568-8-8v-2.466797z" style="fill:#2165b0"/>
 </g>
 <g transform="matrix(.90854028 0 0 .92163775 2.6538461 2.2793023)">
  <path transform="matrix(1.1006667,0,0,1.085025,-2.9209999,-2.4731)" d="m31.998047 10.029297v0.931641c6.3e-5 0.013174 0.001953 0.025872 0.001953 0.039062v17c0 2.272013-0.944775 4.309524-2.457031 5.761719 0.060142-0.057871 0.125284-0.110207 0.183593-0.169922l-0.240234 0.583984h-0.003906c-0.932162 1.799037-5.226385 7.198157-13.441406 8.048828l-1.064454 0.027344c0.261765 0.154577 0.542876 0.300165 0.863282 0.425781 2.245003 0.880164 4.914597 1.322266 8 1.322266l-0.00586-0.011719c3.13719 0 5.844064-0.422503 8.13086-1.285156 2.287704-0.856201 4.166879-2.069013 5.652344-3.636719 1.479103-1.562176 2.582125-3.44186 3.300781-5.628906 0.718655-2.187046 1.078125-4.594737 1.078125-7.216797v-3.125c-0.662286-5.96576-5.931421-11.457227-9.998047-13.066406zm-2.519531 23.792969c-0.193932 0.182174-0.396065 0.355204-0.607422 0.517578 0.211386-0.162562 0.413552-0.335098 0.607422-0.517578z" style="fill:#7ec183"/>
 </g>
 <g transform="matrix(.90854028 0 0 .92163775 2.6538461 2.2793023)" style="fill:#ffffff">
  <path transform="matrix(1.1006667,0,0,1.085025,-2.9209999,-2.4731)" d="m42 4l-9.998047 4.2714844v1l9.998047-4.2714844v-1zm-26 11.685547l-10 4.445312v1l10-4.445312v-1zm0 12.314453v1c0 4.432 3.568 8 8 8 1.66953 0 3.215052-0.508196 4.494141-1.376953 0.450351-0.573046 0.804265-1.092122 0.988281-1.447266h0.003906l0.240234-0.583984c-1.450895 1.485865-3.476133 2.408203-5.726562 2.408203-4.432 0-8-3.568-8-8z" style="fill:#ffffff;opacity:.1"/>
 </g>
 <g transform="matrix(.90854028 0 0 .92163775 2.6538461 2.2793023)" style="fill:#ffffff;opacity:.1">
  <path transform="matrix(1.1006667,0,0,1.085025,-2.9209999,-2.4731)" d="m31.998047 10.029297v0.931641c6.3e-5 0.013173 0.001953 0.025872 0.001953 0.039062v0.029297c4.066408 1.609987 9.333929 7.101435 9.996094 13.066406v-1c-0.662286-5.96576-5.931421-11.457227-9.998047-13.066406zm0.001953 17.970703c0 2.272013-0.944775 4.309524-2.457031 5.761719 0.060142-0.057871 0.125284-0.110207 0.183593-0.169922l-0.240234 0.583984h-0.003906c-0.932162 1.799037-5.226385 7.198157-13.441406 8.048828l-1.064454 0.027344c0.261766 0.154577 0.542876 0.300165 0.863282 0.425781 0.383198 0.150235 0.78351 0.281562 1.191406 0.40625 7.564231-1.163265 11.557626-6.183693 12.451172-7.908203h0.003906l0.240234-0.583984c-0.058309 0.059715-0.123453 0.112052-0.183593 0.169922 1.512256-1.452195 2.457031-3.489706 2.457031-5.761719v-1zm-2.521484 5.822266c-0.193932 0.182174-0.396065 0.355204-0.607422 0.517578 0.211386-0.162562 0.413552-0.335098 0.607422-0.517578z" style="fill:#ffffff"/>
 </g>
</svg>

<svg xmlns="http://www.w3.org/2000/svg" width="48" height="48" x="0" y="0" version="1.1" viewBox="0 0 48 48" xml:space="preserve">
 <g transform="matrix(0.90854028,0,0,0.92163775,2.6538461,2.2793023)">
  <path style="opacity:0.2" d="m 43.307002,2.952025 -11.004518,4.6346674 0,1.9093897 c -0.0014,-5.621e-4 -0.0029,-0.00156 -0.0043,-0.00212 l 0,1.010854 c 6.9e-5,0.01429 0.0022,0.02807 0.0022,0.04238 l 0,18.445425 c 0,2.465191 -1.039883,4.675941 -2.704373,6.251609 -0.02451,0.02325 -0.05046,0.04484 -0.07524,0.06781 -0.21164,0.19617 -0.431535,0.382417 -0.66212,0.557347 -8.02e-4,6.08e-4 -0.0013,0.0015 -0.0021,0.0021 -1.483594,1.124711 -3.336741,1.801311 -5.361451,1.801311 -4.878155,0 -8.805334,-3.871369 -8.805334,-8.6802 l 0,-2.676536 0,-10.684953 -11.0066667,4.823274 0,6.611871 c 0,2.840001 0.3855599,5.441379 1.1565599,7.794379 0.7650002,2.353001 1.9519691,4.377835 3.5599686,6.077836 1.3620002,1.443 3.0423912,2.614093 5.0303912,3.522092 l 0.133283,-0.0042 0.0022,0 c 0.287669,0.16738 0.596016,0.325935 0.948035,0.461983 2.471,0.955 5.409333,1.434692 8.805334,1.434692 l -0.0064,-0.01272 c 3.453,0 6.432366,-0.458427 8.949366,-1.394427 2.518,-0.928999 4.586344,-2.244931 6.221347,-3.945931 1.628,-1.695 2.842059,-3.734504 3.63306,-6.107504 0.791,-2.372999 1.186656,-4.985404 1.186656,-7.830405 l 0,-0.481055 c 3.68e-4,-0.01158 0.0043,-0.02225 0.0043,-0.03391 l 0,-23.595056 z"/>
 </g>
 <g transform="matrix(0.90854028,0,0,0.92163775,2.6538461,2.2793023)">
  <path style="fill:#2165b0" d="m 42,4 -9.998047,4.2714844 0,16.7851566 C 32.01301,28.672327 42,28.367623 42,25.746094 L 42,4 Z" transform="matrix(1.1006667,0,0,1.085025,-2.9209999,-2.4731)"/>
 </g>
 <g transform="matrix(0.90854028,0,0,0.92163775,2.6538461,2.2793023)">
  <path style="fill:#2165b0" d="m 16,15.685547 -10,4.445312 0,6.09375 c 0,2.617452 0.3502967,5.01498 1.0507812,7.183594 0.6950334,2.168614 1.7734423,4.034778 3.2343748,5.601563 1.237432,1.329923 2.764135,2.409246 4.570313,3.246093 l 2.555416,0.780524 c 8.215021,-0.850671 11.139375,-7.061565 12.071537,-8.860602 l 0.0039,0 0.240234,-0.583984 C 28.275661,35.077662 26.250429,36 24,36 19.568,36 16,32.432 16,28 l 0,-2.466797 z" transform="matrix(1.1006667,0,0,1.085025,-2.9209999,-2.4731)"/>
 </g>
 <g transform="matrix(0.90854028,0,0,0.92163775,2.6538461,2.2793023)">
  <path style="fill:#7ec183" d="M 31.998047 10.029297 L 31.998047 10.960938 C 31.99811 10.974112 32 10.98681 32 11 L 32 28 C 32 30.272013 31.055225 32.309524 29.542969 33.761719 C 29.603111 33.703848 29.668253 33.651512 29.726562 33.591797 L 29.486328 34.175781 L 29.482422 34.175781 C 28.55026 35.974818 24.256037 41.373938 16.041016 42.224609 L 14.976562 42.251953 C 15.238327 42.40653 15.519438 42.552118 15.839844 42.677734 C 18.084847 43.557898 20.754441 44 23.839844 44 L 23.833984 43.988281 C 26.971174 43.988281 29.678048 43.565778 31.964844 42.703125 C 34.252548 41.846924 36.131723 40.634112 37.617188 39.066406 C 39.096291 37.50423 40.199313 35.624546 40.917969 33.4375 C 41.636624 31.250454 41.996094 28.842763 41.996094 26.220703 L 41.996094 23.095703 C 41.333808 17.129943 36.064673 11.638476 31.998047 10.029297 z M 29.478516 33.822266 C 29.284584 34.00444 29.082451 34.17747 28.871094 34.339844 C 29.08248 34.177282 29.284646 34.004746 29.478516 33.822266 z" transform="matrix(1.1006667,0,0,1.085025,-2.9209999,-2.4731)"/>
 </g>
 <g style="fill:#ffffff" transform="matrix(0.90854028,0,0,0.92163775,2.6538461,2.2793023)">
  <path style="fill:#ffffff;opacity:0.1" d="M 42 4 L 32.001953 8.2714844 L 32.001953 9.2714844 L 42 5 L 42 4 z M 16 15.685547 L 6 20.130859 L 6 21.130859 L 16 16.685547 L 16 15.685547 z M 16 28 L 16 29 C 16 33.432 19.568 37 24 37 C 25.66953 37 27.215052 36.491804 28.494141 35.623047 C 28.944492 35.050001 29.298406 34.530925 29.482422 34.175781 L 29.486328 34.175781 L 29.726562 33.591797 C 28.275667 35.077662 26.250429 36 24 36 C 19.568 36 16 32.432 16 28 z" transform="matrix(1.1006667,0,0,1.085025,-2.9209999,-2.4731)"/>
 </g>
 <g style="fill:#ffffff;opacity:0.1" transform="matrix(0.90854028,0,0,0.92163775,2.6538461,2.2793023)">
  <path style="fill:#ffffff" d="M 31.998047 10.029297 L 31.998047 10.960938 C 31.99811 10.974111 32 10.98681 32 11 L 32 11.029297 C 36.066408 12.639284 41.333929 18.130732 41.996094 24.095703 L 41.996094 23.095703 C 41.333808 17.129943 36.064673 11.638476 31.998047 10.029297 z M 32 28 C 32 30.272013 31.055225 32.309524 29.542969 33.761719 C 29.603111 33.703848 29.668253 33.651512 29.726562 33.591797 L 29.486328 34.175781 L 29.482422 34.175781 C 28.55026 35.974818 24.256037 41.373938 16.041016 42.224609 L 14.976562 42.251953 C 15.238328 42.40653 15.519438 42.552118 15.839844 42.677734 C 16.223042 42.827969 16.623354 42.959296 17.03125 43.083984 C 24.595481 41.920719 28.588876 36.900291 29.482422 35.175781 L 29.486328 35.175781 L 29.726562 34.591797 C 29.668253 34.651512 29.603109 34.703849 29.542969 34.761719 C 31.055225 33.309524 32 31.272013 32 29 L 32 28 z M 29.478516 33.822266 C 29.284584 34.00444 29.082451 34.17747 28.871094 34.339844 C 29.08248 34.177282 29.284646 34.004746 29.478516 33.822266 z" transform="matrix(1.1006667,0,0,1.085025,-2.9209999,-2.4731)"/>
 </g>
</svg>
